!!!COM: Schubert, Franz
!!!CNT: Deutscher
!!!TXO: Deutsch
!!!OTL: "Einsamkeit (Urspruengliche Fassung)
!!!OPR: Winterreise
!!!LYR: Mu2ller, Wilhelm
!!!OPS: Opus 89
!!!ONM: No. 12a
!!!ODT: 1827/
!!NB: Vocal melody only encoded. 
**kern	**silbe
*clefG2	*
*k[b-]	*
*M2/4	*
*MM[langsam]	*
=6	=6
4r	.
8r	.
{8a	{Wie
=7	=7
8.a	ei-
16b-	-ne
16a	tru2-
16b-	|
16a	-be
16dd	|
=8	=8
4ee	Wol-
8dd	-ke
8dd	durch
=9	=9
16dd	heit'-
16a	|
8a	-re
16a	Lu2f-
16b-	|
16g	-te
16e	|
=10	=10
4a}	geht,}
8r	.
{8a	{wenn
=11	=11
8.a	in
16b-	der
16a	Tan-
16b-	|
16a	-nen
16dd	|
=12	=12
4ee	Wip-
8dd	-fel
8dd	ein
=13	=13
16dd	mat-
16a	|
8a	-tes
16a	Lu2ft-
16b-	|
16g	-chen
16e	|
=14	=14
4a}	weht:}
8r	.
{8a	{so
=15	=15
8.a	zieh'
16e	ich
16a	mei-
16cc#	|
16ee	-ne
16gg	|
=16	=16
8.ff	Stra-
16ee	|
8dd	-sse
16cc#	da-
16dd	|
=17	=17
8b-	-hin
16a	mit
16b-	|
8g	tra2-
8g#	-gem
=18	=18
4a}	Fuss,}
8r	.
{16a	{durch
16b-	|
=19	=19
8.a	hel-
16e	-les,
16a	fro-
16cc#	|
16ee	-hes
16gg	|
=20	=20
8.ff	Le-
16ee	|
8dd	-ben
16cc#	ein-
16dd	|
=21	=21
8b-	-sam
16a	und
16b-	|
8g	oh-
8g#	-ne
=22	=22
4a}	Gruss.}
4r	.
=23	=23
4r	.
8r	.
{8cc#	{Ach,
=24	=24
8.dd	dass
16dd	die
8dd	Luft
16ee	so
16dd	|
=25	=25
(16dd	ru-
16cc)	|
8cc}	-hig!}
8r	.
{8cc	{ach,
=26	=26
8.dd	dass
16dd	die
8dd	Welt
16ee	so
16dd	|
=27	=27
8dd	licht!
8cc}	|}
4r	.
=28	=28
4r	.
8r	.
{8cc#	{Als
=29	=29
8dd	noch
8ff	die
8.gg-	Stu2r-
16gg-	-me
=30	=30
8ff	tob-
8dd}	-ten.}
4r	.
=31	=31
4r	.
8r	.
{8dd	{war
=32	=32
8.ee-	ich
16b-	so
8ee-	e-
8dd	-lend,
=33	=33
8.r	.
16dd	so
8ff	e-
8cc#	-lend
=34	=34
4dd}	nicht.}
4r	.
=35	=35
4r	.
8r	.
{8dd	{Ach,
=36	=36
8.cc	dass
16cc	die
8cc	Luft
16dd	so
16cc	|
=37	=37
(16cc	ru-
16b-)	|
8b-}	-hig!}
8r	.
{8dd	{ach,
=38	=38
8.dd	dass
16dd	die
8dd	Welt
16een	so
16dd	|
=39	=39
(8dd	licht!
8cc)}	|}
4r	.
=40	=40
4r	.
8r	.
{8cc#	{Als
=41	=41
8dd	noch
8ff	die
8.gg-	Stu2r-
16gg-	-me
=42	=42
8ff	tob-
8dd}	-ten,}
4r	.
=43	=43
4r	.
8r	.
{8dd	{war
=44	=44
8.ee-	ich
16b-	so
8ee-	e-
8dd	-lend,
=45	=45
8.r	.
16dd	so
8ff	e-
8cc#	-lend
=46	=46
4dd}	nicht.}
4r	.
*-	*-
